X: 53
T: Missa De Sancto Antonio / Gloria
N: Derived from Rue1012b-Missa_De_Sancto_Antonio-Gloria.krn
C: Pierre de la Rue
%%abc-version 2.0
%%abcx-abcm2ps-target-version 5.9.1 (29 Sep 2008)
%%abc-creator hum2abc beta
%%abcx-conversion-date 2019/02/17 08:01:11
%%abc-edited-by Jesse Rodin
%%abc-edited-by Chris Gage 01-07-2013
%%abcx-initial-encoding-date 2013/07/15/
%%humdrum-veritas 4139682500
%%humdrum-veritas-data 2232887951
%%linebreak <none>
%%barnumbers 0
L: 1/4
M: 3/1
Q: 1/2=120
%%staves [1 2 3 4]
V: 1 clef=treble
V: 2 clef=treble-8
V: 3 clef=treble-8
V: 4 clef=bass
K: C
[V:1] z12 | 
[V:2] B8d4 | 
[V:3] z12 | 
[V:4] E,8F,4 | 
[V:1] E8G4 | 
[V:2] e4g6fe | 
[V:3] z12 | 
[V:4] E,2A,2G,2C2B,2E2 | 
[V:1] A4c6BA | 
[V:2] f2a4g4^f2 | 
[V:3] z12 | 
[V:4] D2C3B,A,G,A,4 | 
[V:1] B2d4c2BAGF | 
[V:2] g4d2efgfed | 
[V:3] z12 | 
[V:4] G,4z4G,4 | 
[V:1] E2A2G2c2B2e2 | 
[V:2] c2f2e2a2g2c2 | 
[V:3] z12 | 
[V:4] A,2D,2E,2F,2G,2A,2 | 
[V:1] d3cB2A2d3c | 
[V:2] z4z4z2f2- | 
[V:3] z12 | 
[V:4] B,2C2D3CB,A,D2- | 
[V:1] BAd3cBAG2c2 | 
[V:2] f2f2g3fedc2 | 
[V:3] z12 | 
[V:4] DCB,A,G,2C2B,2A,2 | 
[V:1] B2A2G2A4^G2 | 
[V:2] d4e2ABcdB2 | 
[V:3] z12 | 
[V:4] G,2F,2E,2D,2E,4 | 
[V:1] A4z2c3BG2- | 
[V:2] A4z2e2e3e | 
[V:3] c12 | 
[V:4] z2F,3E,C,3D,E,F, | 
[V:1] GABcd4d4 | 
[V:2] d4g4f4 | 
[V:3] B12 | 
[V:4] G,2G,4F,E,D,4 | 
[V:1] e2e4dcd4 | 
[V:2] e3fg2a3gg2 | 
[V:3] c6BAB4 | 
[V:4] C,8z4 | 
[V:1] c8z4 | 
[V:2] a3gf2e2d4 | 
[V:3] A8z4 | 
[V:4] F,4F,2F,2G,4 | 
[V:1] c4c2c2d4 | 
[V:2] c8z4 | 
[V:3] A12 | 
[V:4] A,3G,F,2E,2D,4 | 
[V:1] e3dc2B2A4 | 
[V:2] g3f/g/a2g4f2 | 
[V:3] c8d4 | 
[V:4] C,4z4z4 | 
[V:1] G2c4c2B2G2 | 
[V:2] g4a2g3fde | 
[V:3] e8d4 | 
[V:4] C4A,2C2G,2B,2 | 
[V:1] A2c4B2G2A2- | 
[V:2] f2e3fg3fed | 
[V:3] c3de2d4c2- | 
[V:4] A,3B,C2G,2B,2A,2- | 
[V:1] AGB3AG4^F2 | 
[V:2] c2B2G4A4 | 
[V:3] cAd4c2d4 | 
[V:4] A,2D,2E,4D,4 | 
[V:1] G8z4 | 
[V:2] GABcdec4B2 | 
[V:3] z12 | 
[V:4] z2G,4F,E,D,4 | 
[V:1] G4G2G4G2 | 
[V:2] c8z4 | 
[V:3] e12 | 
[V:4] C,12 | 
[V:1] A8A4 | 
[V:2] c4c2c4c2 | 
[V:3] f8f4 | 
[V:4] F,8A,4 | 
[V:1] B6G2G4 | 
[V:2] d2d2B4c4 | 
[V:3] g4g2g2e3d | 
[V:4] G,8C,4 | 
[V:1] z2G4G2A2c2- | 
[V:2] z2e4e2c4 | 
[V:3] c2BAB4A4 | 
[V:4] z4E,4F,3G, | 
[V:1] cBAGA2GEF2E2- | 
[V:2] c2d4G2z2c2 | 
[V:3] z12 | 
[V:4] A,G,F,E,F,2E,C,D,2C,2- | 
[V:1] E2c2BGA2G2d2 | 
[V:2] BGA2G2z2g2fd | 
[V:3] z12 | 
[V:4] C,2C,2G,2F,D,E,2D,2 | 
[V:1] cAB4A3^GG2 | 
[V:2] e2d4d2cAB2 | 
[V:3] z12 | 
[V:4] z2G,4F,D,E,4 | 
[V:1] A4z2A3Bc2- | 
[V:2] A12 | 
[V:3] c12- | 
[V:4] z2A,3B,C3B,A,G, | 
[V:1] cBAGF2E2D4 | 
[V:2] z2A3Bc4B2 | 
[V:3] c8d4 | 
[V:4] F,2F,3E,C,2G,4 | 
[V:1] C8z4 | 
[V:2] c3BA2G2d4 | 
[V:3] e8f4 | 
[V:4] z2C,4E,2D,2F,2 | 
[V:1] z12 | 
[V:2] G4z4z4 | 
[V:3] e2c2d4e2c2 | 
[V:4] C,2E,2D,2F,2C,2E,2 | 
[V:1] z12 | 
[V:2] z4z4A4 | 
[V:3] d2f3ee4d2 | 
[V:4] D,2A,3G,F,E,F,4 | 
[V:1] G6G2A2c2- | 
[V:2] B2c3BB2A2e2- | 
[V:3] e12 | 
[V:4] E,8z4 | 
[V:1] cBB2A2e3dd2 | 
[V:2] edd2c3B/A/G4 | 
[V:3] z12 | 
[V:4] z12 | 
[V:1] c2BAG2c3BB2 | 
[V:2] z2c2B2A2c2d2 | 
[V:3] z12 | 
[V:4] z4z2A,3G,G,2 | 
[V:1] A3G/F/E4E2D2 | 
[V:2] dc2Bc4z4 | 
[V:3] z12 | 
[V:4] F,2E,D,C,2C3B,B,2 | 
[V:1] E2F2G2E3DD2 | 
[V:2] z12 | 
[V:3] z12 | 
[V:4] A,3G,/F,/E,2G,2F,4 | 
[V:1] E8z2B2 | 
[V:2] z2B2c2B2c2BA | 
[V:3] e12- | 
[V:4] E,8z2E,2 | 
[V:1] B2B2c2BAG2c2 | 
[V:2] G4c3defg2- | 
[V:3] e12 | 
[V:4] E,2E,2A,2G,F,E,2C,2 | 
[V:1] B2A4GFA2E2 | 
[V:2] g2d2f4e2c2 | 
[V:3] d8c4 | 
[V:4] G,2F,2D,4z2A,2- | 
[V:1] z2E2F2E2F2E2- | 
[V:2] z2A3Bc2A2B2 | 
[V:3] z2c2d2c2d2ef | 
[V:4] A,G,A,2D,2A,2F,2G,2 | 
[V:1] E2D2EFGEF2E2 | 
[V:2] G2B2c2G2z2g2- | 
[V:3] gef2e4d2e2- | 
[V:4] C,2D,2z2C,2D,2C,2- | 
[V:1] c3BBAd3Bc2 | 
[V:2] g4g2g3ff2 | 
[V:3] e2d4d4c2 | 
[V:4] C,2G,4B,2A,4 | 
[V:1] B2G4d2B2c2- | 
[V:2] g4z2g3fe2 | 
[V:3] d4z2d2e3d | 
[V:4] G,8G,2A,2- | 
[V:1] cAd4cBA4 | 
[V:2] a3gfee4d2 | 
[V:3] cBA4G2A4 | 
[V:4] A,G,F,E,D,2E,2F,4 | 
[V:1] G12 ||  
[V:2] e12 ||  
[V:3] B4c4B4 ||  
[V:4] E,12 ||  
[V:1]  [K:C] [K:clef=treble][M:2/1]z8 | 
[V:2]  [K:C] [K:clef=treble-8][M:2/1]B8 | 
[V:3]  [K:C] [K:clef=treble-8][M:2/1]z8 | 
[V:4]  [K:C] [K:clef=bass][M:2/1]z8 | 
[V:1] z8 | 
[V:2] d4e4 | 
[V:3] z8 | 
[V:4] z4E,4- | 
[V:1] z4E4- | 
[V:2] B6e2- | 
[V:3] z8 | 
[V:4] E,4G,4 | 
[V:1] E4G4 | 
[V:2] e2c3de2 | 
[V:3] c8- | 
[V:4] A,4E,4 | 
[V:1] A4E4 | 
[V:2] f2e4dc | 
[V:3] c8- | 
[V:4] A,8 | 
[V:1] A4G4 | 
[V:2] f4e4- | 
[V:3] c8- | 
[V:4] F,4C4 | 
[V:1] c6BA | 
[V:2] e2dcg4- | 
[V:3] c8 | 
[V:4] C,6D,2 | 
[V:1] G6A2 | 
[V:2] g2fed4- | 
[V:3] B8- | 
[V:4] E,2F,2G,4- | 
[V:1] B2c2d4 | 
[V:2] d4d4 | 
[V:3] B8 | 
[V:4] G,2F,E,D,4 | 
[V:1] G4G2A2- | 
[V:2] e3fg2f2- | 
[V:3] c8 | 
[V:4] C,3D,E,2F,2- | 
[V:1] A2c2B2d2- | 
[V:2] f2e2g2a2- | 
[V:3] c4d4 | 
[V:4] F,G,A,2G,2D,2 | 
[V:1] d2c2BAB2- | 
[V:2] a2a2g3f | 
[V:3] e4e2d2- | 
[V:4] A,4E,2G,2- | 
[V:1] B2A4^G2 | 
[V:2] e2d2e4 | 
[V:3] dcBAB4 | 
[V:4] G,A,F,2E,4 | 
[V:1] A4z2E2- | 
[V:2] z4z2c2- | 
[V:3] A8- | 
[V:4] z4A,3B, | 
[V:1] E2F4ED | 
[V:2] c2d4cB | 
[V:3] A8- | 
[V:4] C2F,2D,2A,2- | 
[V:1] E2F2E2F2- | 
[V:2] c2d2c2d2- | 
[V:3] A8- | 
[V:4] A,2D,2A,,2D,2- | 
[V:1] F2E3DD2 | 
[V:2] d2e2f4 | 
[V:3] A8 | 
[V:4] D,2C,2D,4 | 
[V:1] E8- | 
[V:2] e8 | 
[V:3] c8- | 
[V:4] z4A,4- | 
[V:1] E8 | 
[V:2] z8 | 
[V:3] c8 | 
[V:4] A,4A,4 | 
[V:1] z8 | 
[V:2] z8 | 
[V:3] d8 | 
[V:4] B,4B,2G,2- | 
[V:1] z8 | 
[V:2] z8 | 
[V:3] d4e4 | 
[V:4] G,A,B,2C2A,2- | 
[V:1] z8 | 
[V:2] z8 | 
[V:3] e2c3de2 | 
[V:4] A,2A,3B,C2 | 
[V:1] z8 | 
[V:2] z8 | 
[V:3] f2d4d2- | 
[V:4] D4G,2B,2- | 
[V:1] z8 | 
[V:2] z8 | 
[V:3] def2g4 | 
[V:4] B,CA,2G,2C2- | 
[V:1] z8 | 
[V:2] z8 | 
[V:3] c4f4 | 
[V:4] CB,A,G,F,2G,2- | 
[V:1] z8 | 
[V:2] z4e4 | 
[V:3] e2d3^c^c2 | 
[V:4] G,F,E,D,E,4 | 
[V:1] z4A4 | 
[V:2] f4f4 | 
[V:3] d8 | 
[V:4] D,8 | 
[V:1] B4B4 | 
[V:2] g3fd2e2- | 
[V:3] z8 | 
[V:4] z8 | 
[V:1] c3BG2A2- | 
[V:2] e2f2e2f2- | 
[V:3] z8 | 
[V:4] z8 | 
[V:1] AGE2F4 | 
[V:2] fee4d2 | 
[V:3] z8 | 
[V:4] z8 | 
[V:1] E8 | 
[V:2] e8 | 
[V:3] c8- | 
[V:4] A,8- | 
[V:1] z4E4 | 
[V:2] z8 | 
[V:3] c4c4 | 
[V:4] A,4A,4 | 
[V:1] G4G4 | 
[V:2] z8 | 
[V:3] d8 | 
[V:4] B,8 | 
[V:1] A4c4 | 
[V:2] c4e2f2 | 
[V:3] e4c4 | 
[V:4] A,8 | 
[V:1] B2d3cBA | 
[V:2] g4g2f2- | 
[V:3] d8- | 
[V:4] G,3A,B,CD2- | 
[V:1] B2A4^G2 | 
[V:2] f2e2d4 | 
[V:3] d8 | 
[V:4] DCB,A,B,4 | 
[V:1] A4z2c2 | 
[V:2] c4z2c2 | 
[V:3] e8- | 
[V:4] A,8 | 
[V:1] A2c4BA | 
[V:2] c2c3def | 
[V:3] e8 | 
[V:4] z4A,4 | 
[V:1] B2G4B2 | 
[V:2] g3fe2d2 | 
[V:3] z8 | 
[V:4] G,2E,4G,2 | 
[V:1] A2F2A2G2- | 
[V:2] f4d2e2- | 
[V:3] z8 | 
[V:4] F,2D,2F,2E,2 | 
[V:1] G2FEF2D2- | 
[V:2] e2c2d2A2- | 
[V:3] z8 | 
[V:4] C,2E,2D,2F,2 | 
[V:1] D2C2D2F2- | 
[V:2] A2G2B2A2- | 
[V:3] z8 | 
[V:4] E,4D,4 | 
[V:1] FEE4D2 | 
[V:2] AGFEF4 | 
[V:3] A8 | 
[V:4] z4D,4 | 
[V:1] E4z2E2 | 
[V:2] E4z2E2 | 
[V:3] B8- | 
[V:4] G,2G,2G,2G,2 | 
[V:1] E2E2G2G2 | 
[V:2] G2G2E4 | 
[V:3] B8 | 
[V:4] E,8 | 
[V:1] E4z2E2- | 
[V:2] A4G4 | 
[V:3] c8- | 
[V:4] z4C,4 | 
[V:1] EFG2E2A2- | 
[V:2] z8 | 
[V:3] c8 | 
[V:4] C,3D,E,2F,2- | 
[V:1] A2G2A2c2- | 
[V:2] z8 | 
[V:3] c4c4 | 
[V:4] F,2E,2F,2A,2- | 
[V:1] c2BAB2G2 | 
[V:2] z4g4 | 
[V:3] d8 | 
[V:4] A,2G,F,G,4 | 
[V:1] d4z2c2 | 
[V:2] g2g2a3g | 
[V:3] d4e4 | 
[V:4] G,2B,2A,4 | 
[V:1] d2B2c4 | 
[V:2] feg4f2 | 
[V:3] d4z2c2 | 
[V:4] z2G,2A,4 | 
[V:1] B4z2c2 | 
[V:2] g4z4 | 
[V:3] d2B2c4 | 
[V:4] G,4A,4 | 
[V:1] d2B2c4 | 
[V:2] z2g4f2 | 
[V:3] B4z2c2 | 
[V:4] G,4A,4 | 
[V:1] B4G2A2- | 
[V:2] g2e2g2f2 | 
[V:3] d2B2c4 | 
[V:4] G,4E,2F,2 | 
[V:1] AGG4^F2 | 
[V:2] d8 | 
[V:3] B2G2A4 | 
[V:4] G,4D,4 | 
[V:1] G8 | 
[V:2] B4B2c2- | 
[V:3] G8- | 
[V:4] z4E,4- | 
[V:1] z4G4 | 
[V:2] c2BAB4 | 
[V:3] G8 | 
[V:4] E,4G,4 | 
[V:1] A4A4 | 
[V:2] A4f4 | 
[V:3] z4c4 | 
[V:4] F,4A,4 | 
[V:1] B8 | 
[V:2] g4g4 | 
[V:3] d4d4 | 
[V:4] G,4B,4 | 
[V:1] c6BA | 
[V:2] c8 | 
[V:3] e8 | 
[V:4] A,8 | 
[V:1] A4z2A2 | 
[V:2] d6ef | 
[V:3] f6ed | 
[V:4] D,8- | 
[V:1] _B2A4GF | 
[V:2] g2f4ed | 
[V:3] d8 | 
[V:4] D,8- | 
[V:1] _B2A4GF | 
[V:2] f8 | 
[V:3] z4d4 | 
[V:4] D,8 | 
[V:1] c2BAG4 | 
[V:2] g4g4 | 
[V:3] e4e4 | 
[V:4] C,4E,4 | 
[V:1] d6d2 | 
[V:2] a8 | 
[V:3] f8 | 
[V:4] D,8 | 
[V:1] c4B4 | 
[V:2] g4g4 | 
[V:3] e4d4 | 
[V:4] z4G,4 | 
[V:1] A4G4 | 
[V:2] e2f2d2cB | 
[V:3] c4B2e2- | 
[V:4] A,2F,2G,2C,2 | 
[V:1] F4E4 | 
[V:2] A4z2B2- | 
[V:3] edd2e4 | 
[V:4] D,4z2G,2- | 
[V:1] z2A4G2 | 
[V:2] B2A2F2G2- | 
[V:3] z8 | 
[V:4] G,2F,2D,2E,2- | 
[V:1] E2F3EE2- | 
[V:2] G2F4G2- | 
[V:3] z2c4B2 | 
[V:4] E,2A,4G,2 | 
[V:1] E2c4B2 | 
[V:2] G2F2A2B2 | 
[V:3] G2A4G2- | 
[V:4] E,2F,4G,2 | 
[V:1] G2A3GG2 | 
[V:2] c4d2e2- | 
[V:3] G2f4e2 | 
[V:4] E,2F,4C,2 | 
[V:1] E2F3EE2 | 
[V:2] e2A2B2G2 | 
[V:3] c2d4c2- | 
[V:4] E,2D,2B,,2C,2 | 
[V:1] D4C4 | 
[V:2] g4e4 | 
[V:3] c2B2c4 | 
[V:4] G,4z2C,2 | 
[V:1] z4z2G2 | 
[V:2] f2e2z2e2 | 
[V:3] z2c2de3 | 
[V:4] D,2E,2F,2E,2 | 
[V:1] A2B2c2B2- | 
[V:2] d2g2a3g | 
[V:3] f2e4d2- | 
[V:4] z2E,2A,2D,2 | 
[V:1] BAA4^G2 | 
[V:2] f2d2e4 | 
[V:3] dcBAB4 | 
[V:4] F,4E,4 | 
[V:1] A8- | 
[V:2] e8- | 
[V:3] A8- | 
[V:4] z4A,,4 | 
[V:1] A8 |]  
[V:2] e8 |]  
[V:3] A8 |]  
[V:4] A,,8 |]  



